public/logos/electron.svg

<svg width="256" height="256" viewBox="0 0 256 256" fill="none" xmlns="http://www.w3.org/2000/svg">
<path d="M128 230C184.333 230 230 184.333 230 128C230 71.667 184.333 26 128 26C71.667 26 26 71.667 26 128C26 184.333 71.667 230 128 230Z" fill="#2B2E3A"/>
<path d="M106.087 83.1278C85.3647 79.3538 68.9794 83.3039 62.449 94.6148C57.5761 103.055 58.9691 114.246 65.8278 126.208C65.9632 126.456 66.1469 126.675 66.368 126.852C66.5892 127.028 66.8434 127.159 67.1157 127.236C67.3879 127.313 67.6729 127.334 67.9537 127.3C68.2345 127.265 68.5056 127.175 68.7511 127.034C68.9965 126.893 69.2114 126.705 69.3831 126.48C69.5548 126.255 69.6798 125.998 69.7509 125.724C69.822 125.45 69.8376 125.165 69.797 124.885C69.7563 124.605 69.6601 124.336 69.5141 124.094C63.3367 113.318 62.1342 103.661 66.1298 96.74C71.5549 87.3441 86.1696 83.8203 105.326 87.309C105.876 87.4007 106.441 87.2721 106.897 86.9512C107.354 86.6302 107.666 86.1426 107.766 85.5936C107.866 85.0446 107.746 84.4782 107.432 84.0169C107.118 83.5556 106.635 83.2362 106.087 83.1278V83.1278ZM76.6039 140.747C84.983 149.955 95.8692 158.593 108.284 165.76C138.345 183.116 170.347 187.754 186.119 177C186.355 176.846 186.558 176.645 186.715 176.411C186.873 176.177 186.983 175.914 187.037 175.637C187.092 175.36 187.091 175.075 187.035 174.799C186.978 174.522 186.867 174.26 186.708 174.027C186.549 173.793 186.346 173.594 186.109 173.441C185.872 173.287 185.607 173.182 185.329 173.132C185.051 173.082 184.766 173.088 184.491 173.15C184.215 173.211 183.955 173.326 183.725 173.489C169.609 183.114 139.21 178.707 110.41 162.08C98.3658 155.126 87.8239 146.762 79.7476 137.887C79.5601 137.679 79.3334 137.51 79.0806 137.391C78.8278 137.271 78.5538 137.202 78.2743 137.188C77.9949 137.175 77.7155 137.216 77.4521 137.311C77.1888 137.405 76.9467 137.551 76.7398 137.739C76.5328 137.927 76.3651 138.155 76.2463 138.408C76.1274 138.661 76.0597 138.936 76.0471 139.215C76.0344 139.495 76.0771 139.774 76.1727 140.037C76.2682 140.3 76.4148 140.541 76.6039 140.747V140.747Z" fill="#9FEAF9"/>
<path d="M181.088 138.163C194.657 122.133 199.394 106.01 192.878 94.7233C188.083 86.4174 177.946 82.0322 164.473 81.8569C163.915 81.8578 163.379 82.0783 162.982 82.4708C162.585 82.8634 162.358 83.3964 162.351 83.9547C162.344 84.513 162.557 85.0517 162.943 85.4544C163.33 85.8571 163.86 86.0914 164.418 86.1067C176.534 86.2644 185.268 90.0424 189.198 96.8485C194.61 106.224 190.385 120.601 177.844 135.417C177.66 135.629 177.52 135.876 177.432 136.143C177.344 136.41 177.31 136.692 177.331 136.972C177.353 137.252 177.43 137.525 177.558 137.776C177.686 138.026 177.863 138.248 178.077 138.43C178.292 138.612 178.54 138.749 178.808 138.834C179.076 138.919 179.358 138.95 179.638 138.925C179.918 138.9 180.191 138.82 180.439 138.689C180.688 138.558 180.909 138.379 181.088 138.163ZM146.216 83.8356C133.947 86.4645 120.888 91.6043 108.347 98.8447C77.3148 116.761 57.0718 143.18 59.8831 162.336C59.9206 162.614 60.0131 162.883 60.1551 163.126C60.2972 163.369 60.486 163.581 60.7106 163.75C60.9353 163.919 61.1913 164.042 61.4638 164.112C61.7364 164.181 62.02 164.196 62.2983 164.155C62.5765 164.114 62.8439 164.019 63.085 163.874C63.326 163.729 63.5358 163.537 63.7023 163.311C63.8688 163.084 63.9887 162.826 64.0549 162.553C64.1212 162.28 64.1325 161.996 64.0883 161.718C61.5916 144.71 80.7804 119.668 110.472 102.525C122.638 95.501 135.283 90.5245 147.106 87.9913C147.383 87.9367 147.646 87.8277 147.88 87.6704C148.114 87.5132 148.314 87.3109 148.47 87.0754C148.625 86.8399 148.731 86.5759 148.784 86.2987C148.836 86.0216 148.832 85.7368 148.773 85.461C148.714 85.1852 148.601 84.924 148.44 84.6925C148.278 84.461 148.073 84.2638 147.835 84.1125C147.597 83.9612 147.331 83.8588 147.053 83.8113C146.775 83.7637 146.491 83.772 146.216 83.8356V83.8356Z" fill="#9FEAF9"/>
<path d="M95.9417 175.616C103.037 195.426 114.644 207.624 127.695 207.624C137.213 207.624 146.02 201.135 152.887 189.712C153.036 189.472 153.135 189.206 153.18 188.928C153.225 188.65 153.214 188.366 153.148 188.092C153.082 187.818 152.962 187.56 152.795 187.333C152.628 187.106 152.418 186.914 152.177 186.769C151.935 186.624 151.668 186.528 151.389 186.487C151.11 186.447 150.826 186.462 150.553 186.532C150.28 186.602 150.024 186.726 149.8 186.896C149.575 187.065 149.386 187.278 149.245 187.522C143.073 197.788 135.492 203.373 127.695 203.373C116.853 203.373 106.501 192.494 99.9436 174.184C99.8538 173.916 99.7114 173.668 99.5247 173.456C99.3381 173.243 99.1109 173.07 98.8565 172.947C98.6022 172.824 98.3257 172.752 98.0434 172.737C97.761 172.721 97.4785 172.763 97.2123 172.858C96.946 172.953 96.7015 173.101 96.493 173.292C96.2845 173.483 96.1162 173.713 95.9979 173.97C95.8797 174.227 95.8139 174.505 95.8043 174.787C95.7948 175.07 95.8418 175.352 95.9425 175.616H95.9417ZM160.745 171.741C164.419 160.004 166.391 146.465 166.391 132.357C166.391 97.1515 154.069 66.8033 136.519 59.0107C136.006 58.796 135.429 58.7906 134.913 58.9959C134.396 59.2011 133.981 59.6005 133.755 60.1086C133.53 60.6166 133.512 61.1928 133.706 61.7136C133.9 62.2344 134.291 62.6584 134.794 62.8947C150.447 69.8458 162.141 98.6473 162.141 132.357C162.141 146.045 160.23 159.156 156.69 170.471C156.602 170.739 156.568 171.021 156.59 171.302C156.612 171.583 156.69 171.856 156.819 172.107C156.948 172.357 157.125 172.58 157.34 172.761C157.556 172.942 157.805 173.079 158.074 173.163C158.343 173.247 158.626 173.277 158.906 173.251C159.187 173.225 159.459 173.143 159.708 173.011C159.956 172.878 160.176 172.698 160.354 172.48C160.533 172.262 160.666 172.011 160.746 171.741H160.745ZM200.767 169.659C200.767 164.042 196.214 159.489 190.597 159.489C184.98 159.489 180.426 164.042 180.426 169.659C180.426 175.276 184.98 179.83 190.597 179.83C196.214 179.83 200.767 175.276 200.767 169.659ZM196.518 169.659C196.518 170.437 196.365 171.207 196.067 171.925C195.769 172.643 195.333 173.296 194.784 173.846C194.234 174.396 193.581 174.832 192.863 175.129C192.144 175.427 191.374 175.58 190.597 175.58C189.819 175.58 189.049 175.427 188.331 175.129C187.613 174.832 186.96 174.396 186.41 173.846C185.86 173.296 185.424 172.643 185.127 171.925C184.829 171.207 184.676 170.437 184.676 169.659C184.676 168.089 185.3 166.583 186.41 165.473C187.521 164.362 189.027 163.738 190.597 163.738C192.167 163.738 193.673 164.362 194.784 165.473C195.894 166.583 196.518 168.089 196.518 169.659ZM64.646 179.83C70.264 179.83 74.8174 175.276 74.8174 169.659C74.8174 164.042 70.2632 159.489 64.646 159.489C59.0297 159.489 54.4755 164.042 54.4755 169.659C54.4755 175.276 59.0297 179.83 64.646 179.83ZM64.646 175.58C63.0758 175.58 61.5698 174.956 60.4594 173.846C59.3491 172.735 58.7253 171.229 58.7253 169.659C58.7253 168.089 59.3491 166.583 60.4594 165.473C61.5698 164.362 63.0758 163.738 64.646 163.738C66.2163 163.738 67.7223 164.362 68.8327 165.473C69.943 166.583 70.5668 168.089 70.5668 169.659C70.5668 171.229 69.943 172.735 68.8327 173.846C67.7223 174.956 66.2163 175.58 64.646 175.58V175.58Z" fill="#9FEAF9"/>
<path d="M127.695 69.385C133.312 69.385 137.865 64.8316 137.865 59.2145C137.865 53.5973 133.312 49.0439 127.695 49.0439C122.078 49.0439 117.524 53.5973 117.524 59.2145C117.524 64.8316 122.078 69.385 127.695 69.385V69.385ZM127.695 65.1352C126.125 65.1352 124.619 64.5114 123.508 63.4011C122.398 62.2907 121.774 60.7848 121.774 59.2145C121.774 57.6442 122.398 56.1382 123.508 55.0278C124.619 53.9175 126.125 53.2937 127.695 53.2937C129.265 53.2937 130.771 53.9175 131.881 55.0278C132.992 56.1382 133.616 57.6442 133.616 59.2145C133.616 60.7848 132.992 62.2907 131.881 63.4011C130.771 64.5114 129.265 65.1352 127.695 65.1352V65.1352ZM129.248 139.549C125.275 140.407 121.362 137.883 120.502 133.91C120.09 132.003 120.453 130.01 121.511 128.37C122.568 126.729 124.233 125.576 126.141 125.164C130.113 124.306 134.027 126.83 134.887 130.803C135.746 134.775 133.221 138.689 129.248 139.549Z" fill="#9FEAF9"/>
</svg>

<svg width="256" height="256" viewBox="0 0 256 256" fill="none" xmlns="http://www.w3.org/2000/svg">
  <path d="M128 230c56.333 0 102-45.667 102-102S184.333 26 128 26 26 71.667 26 128s45.667 102 102 102Z" fill="#2B2E3A"/>
  <path d="M106.087 83.128c-20.722-3.774-37.108.176-43.638 11.487-4.873 8.44-3.48 19.631 3.379 31.593a2.137 2.137 0 0 0 1.288 1.028 2.136 2.136 0 0 0 1.635-.202 2.128 2.128 0 0 0 .763-2.94c-6.177-10.776-7.38-20.433-3.384-27.354 5.425-9.396 20.04-12.92 39.196-9.431a2.124 2.124 0 0 0 .761-4.181Zm-29.483 57.619c8.379 9.208 19.265 17.846 31.68 25.013 30.061 17.356 62.063 21.994 77.835 11.24.236-.154.439-.355.596-.589a2.13 2.13 0 0 0-.007-2.384 2.12 2.12 0 0 0-2.983-.538c-14.116 9.625-44.515 5.218-73.315-11.409-12.044-6.954-22.586-15.318-30.662-24.193a2.129 2.129 0 0 0-2.296-.576 2.12 2.12 0 0 0-1.405 1.904 2.123 2.123 0 0 0 .557 1.532Z" fill="#9FEAF9"/>
  <path d="M181.088 138.163c13.569-16.03 18.306-32.153 11.79-43.44-4.795-8.306-14.932-12.69-28.405-12.866a2.126 2.126 0 0 0-.055 4.25c12.116.157 20.85 3.935 24.78 10.742 5.412 9.375 1.187 23.752-11.354 38.568a2.12 2.12 0 0 0-.286 2.359 2.14 2.14 0 0 0 1.25 1.058 2.121 2.121 0 0 0 2.28-.671Zm-34.872-54.327c-12.269 2.629-25.328 7.768-37.869 15.009-31.032 17.916-51.275 44.335-48.464 63.491a2.132 2.132 0 0 0 .828 1.414 2.134 2.134 0 0 0 2.374.124 2.135 2.135 0 0 0 .97-1.321c.066-.273.077-.557.033-.835-2.496-17.008 16.692-42.05 46.384-59.193 12.166-7.024 24.811-12 36.634-14.534a2.123 2.123 0 0 0 1.667-2.53 2.124 2.124 0 0 0-2.557-1.625Z" fill="#9FEAF9"/>
  <path d="M95.942 175.616c7.095 19.81 18.702 32.008 31.753 32.008 9.518 0 18.325-6.489 25.192-17.912a2.13 2.13 0 0 0-.092-2.379 2.133 2.133 0 0 0-1.406-.846 2.115 2.115 0 0 0-2.144 1.035c-6.172 10.266-13.753 15.851-21.55 15.851-10.842 0-21.194-10.879-27.751-29.189a2.122 2.122 0 0 0-1.9-1.447 2.117 2.117 0 0 0-1.551.555 2.123 2.123 0 0 0-.55 2.324h-.001Zm64.803-3.875c3.674-11.737 5.646-25.276 5.646-39.384 0-35.206-12.322-65.554-29.872-73.346a2.126 2.126 0 0 0-1.725 3.884c15.653 6.95 27.347 35.752 27.347 69.462 0 13.688-1.911 26.799-5.451 38.114a2.129 2.129 0 0 0 .65 2.29 2.133 2.133 0 0 0 2.368.25 2.137 2.137 0 0 0 1.038-1.27h-.001Zm40.022-2.082c0-5.617-4.553-10.17-10.17-10.17s-10.171 4.553-10.171 10.17 4.554 10.171 10.171 10.171c5.617 0 10.17-4.554 10.17-10.171Zm-4.249 0a5.91 5.91 0 0 1-1.734 4.187 5.914 5.914 0 0 1-4.187 1.734 5.91 5.91 0 0 1-4.187-1.734 5.914 5.914 0 0 1-1.734-4.187 5.92 5.92 0 0 1 11.842 0ZM64.646 179.83c5.618 0 10.171-4.554 10.171-10.171 0-5.617-4.554-10.17-10.171-10.17-5.616 0-10.17 4.553-10.17 10.17s4.554 10.171 10.17 10.171Zm0-4.25a5.922 5.922 0 0 1-5.92-5.921 5.92 5.92 0 0 1 10.107-4.186 5.92 5.92 0 0 1-4.187 10.107Z" fill="#9FEAF9"/>
  <path d="M127.695 69.385c5.617 0 10.17-4.553 10.17-10.17 0-5.618-4.553-10.171-10.17-10.171s-10.171 4.553-10.171 10.17c0 5.618 4.554 10.171 10.171 10.171Zm0-4.25a5.923 5.923 0 0 1-5.921-5.92 5.922 5.922 0 0 1 5.921-5.921 5.92 5.92 0 0 1 4.186 10.107 5.92 5.92 0 0 1-4.186 1.734Zm1.553 74.414a7.358 7.358 0 1 1-3.107-14.385 7.358 7.358 0 0 1 3.107 14.385Z" fill="#9FEAF9"/>
</svg>
